!!!COM: Corelli, Arcangelo
!!!OTL: 
!!!ONM: Opus 3, No. 8
!!!OMV: 3
!!!CDT: 1653/2/17/-1713/1/8/
!!!OCY: Italia
**kern	**kern	**kern	**kern
*clefC	*clefC	*clefG	*clefG
*k[]	*k[]	*k[]	*k[]
*a:	*a:	*a:	*a:
*M3/2	*M3/2	*M3/2	*M3/2
=1	=1	=1	=1
2A	2A	1.r	2r
2C	2C	.	[1a
2AA	2AA	.	.
=2	=2	=2	=2
2D	2D	[1.b	2a]
2E	2E	.	1g#
2EE	2EE	.	.
=3	=3	=3	=3
2r	2r	2b]	1cc
2A	2A	2e	.
2C	2C	[2a	2ee
=4	=4	=4	=4
2D	2D	2a]	4dd
.	.	.	4cc
2E	2E	2.a	1b
2EE	2EE	.	.
.	.	4g#	.
=5	=5	=5	=5
2AA	2AA	1a	2a
2A	2A	.	[1cc
2E	2E	2r	.
=6	=6	=6	=6
2F	2F	[1.dd	2cc]
2G	2G	.	1b
2GG	2GG	.	.
=7	=7	=7	=7
2r	2r	2dd]	1ee
2c	2c	2g	.
2E	2E	[2cc	2gg
=8	=8	=8	=8
2F	2F	2cc]	4ff
.	.	.	4ee
2G	2G	2.cc	1dd
2GG	2GG	.	.
.	.	4b	.
=9	=9	=9	=9
2C	2C	2cc	2cc
2c	2c	4cc	4ee
.	.	4dd	4ff
2C	2C	2ee	2gg
=10	=10	=10	=10
1D	1D	2r	2r
.	.	4b	4dd
.	.	4cc	4ee
2D	2D	2dd	2ff
=11	=11	=11	=11
1E	1E	2r	2r
.	.	2g	4cc
.	.	.	4dd
2E	2E	[2cc	2ee
=12	=12	=12	=12
2F#	2F#	2cc]	1dd
2G#	2G#	4b	.
.	.	4a	.
2E	2E	[2b	4cc
.	.	.	4b
=13	=13	=13	=13
1A	1A	2b]	1cc
.	.	2e	.
2A	2A	[2a	2cc
=14	=14	=14	=14
2B	2B	2a]	2d#
2c	2c	2g	[1e
2A	2A	2f#	.
=15	=15	=15	=15
2B	2B	2g	2e]
1BB	1BB	1f#	2.e
.	.	.	4d#
=16	=16	=16	=16
2EE	2EE	2e	2e
2c	2c	[1ee	1gg
2C	2C	.	.
=17	=17	=17	=17
2D	2D	2ee]	1.ff
2BB	2BB	[1dd	.
2GG	2GG	.	.
=18	=18	=18	=18
2C	2C	2dd]	1.ee
2c	2c	2g	.
2E	2E	[2cc	.
=19	=19	=19	=19
2F#	2F#	2cc]	1.dd
2G#	2G#	[1b	.
2E	2E	.	.
=20	=20	=20	=20
2A	2A	2b]	1cc
2AA	2AA	2e	.
2C	2C	[2ee	2ee
=21	=21	=21	=21
1.D	1.D	2ee]	1ff#
.	.	2a	.
.	.	[2dd	2ff#
=22	=22	=22	=22
2E	2E	2dd]	2gg#
2F	2F	2cc	2aa
2D	2D	2b	[2a
=23	=23	=23	=23
2E	2E	2cc	2a]
1EE	1EE	1b	2.a
.	.	.	4g#
=24	=24	=24	=24
2AA	2AA	2a	2a
2A	2A	2cc	2ff
2G	2G	2b	2ee
=25	=25	=25	=25
1F	1F	2r	2r
.	.	2a	2dd
2E	2E	2g	2cc
=26	=26	=26	=26
1D	1D	2r	2r
.	.	2f	2b-
2C	2C	2e	2a
=27	=27	=27	=27
1BB	1BB	1g#	1dd
[2AA	[2AA	[2a	[2cc
=28	=28	=28	=28
2AA]	2AA]	2a]	2cc]
1E	1E	2.a	1b
.	.	4g#	.
=29	=29	=29	=29
1AA	1AA	1a	1a
[2GG	[2GG	[2b	[2ee
=30	=30	=30	=30
2GG]	2GG]	2b]	2ee]
1FF	1FF	1a	1dd
=31	=31	=31	=31
1.EE	1.EE	1.g#	1.ee
==	==	==	==
*-	*-	*-	*-
!!!RWG: This file only contains pitch and duration data.
!!!RWG: Transposing instruments are not transposed.
!!!RWG: Durations of rests and tied notes may be interpreted.
!!!RWG: Key is interpreted using the Humdrum key tool.
!!!SCA: 
!!!YOR: Chrysander Edition
!!!AGN: chamber
!!!AFT: stage1
!!!ENC: F. Bennion
!!!END: 1997/04/15
!!!AST: baroque
!!!YEC: Copyright 1994, Center for Computer Assisted Research in the Humanities
!!!YEM: Rights to all derivative electronic formats reserved.
!!!YEM: Refer to licensing agreement for further details.
!!!YEN: United States of America
!!!EED: W.B. Hewlett
!!!KEY: 3071813837
!!!EMD: Converted from MuseData to Humdrum Aug 9, 1999, by Bret Aarden using muse2kern.
!!!VTS: 3958349453
